!!!!SEGMENT: pl-sa--70-a-ii-10--006_pergolesi-giovanni-battista--stabat-mater-vidit-suum.krn
!!!cenid: 17xx:648
!!!COM: Pergolesi, Giovanni Battista
!!!COM-rismid: pe30002483
!!!CDT: 1710/01/04-1736/03
!!!CNT: Italian
!!!OTL: Stabat Mater – Vidit suum
!!!PDT:
!!!AGN: Sacred
!!!SMS-siglum: PL-SA
!!!SMS-shelfmark: 70/A II 10
!!!SMS-shelfwork: 001-006 M
!!!SMS-variant:
!!!SMS-altvar:
!!!NIFC-rismid: 1001030091
!!!URL-scan: http://bc.bdsandomierz.pl/dlibra/publication/1341/edition/1309/content
!!!ONB-nifc: UWAGA: części Stabat Mater: Stabat Mater, Cuius animam, O quam tristis, Quae moerebat, Quist est homo+Pro peccatis, Vidit suum, Eja mater, Fac ut ardeat, Sancta Mater, Fac ut portem, Inflammatus, Quando corpus+Amen
**kern	**fba	**dynam	**kern	**dynam	**kern	**kern	**dynam	**kern	**kern	**text	**dynam
*part6	*	*part6	*part5	*part5	*part4	*part3	*part3	*part2	*part1	*part1	*part1
*staff6	*	*	*staff5	*	*staff4	*staff3	*	*staff2	*staff1	*staff1	*
*I"Organo	*	*	*I"Alto Viola	*	*I"Violino 2do	*I"Violino 1mo	*	*I"Alto	*I"Canto	*	*
*I'org	*	*	*I'a-vla	*	*I'vl 2	*I'vl 1	*	*I'A	*I'C	*	*
*group3	*	*	*group2	*	*group2	*group2	*	*group1	*group1	*	*
*clefF4	*	*	*clefC3	*	*clefG2	*clefG2	*	*clefG2	*clefC1	*	*
*k[b-e-a-]	*	*	*k[b-e-a-]	*	*k[b-e-a-]	*k[b-e-a-]	*	*k[b-e-a-]	*k[b-e-a-]	*	*
*f:	*	*	*f:	*	*f:	*f:	*	*f:	*f:	*	*
*M4/4	*	*	*M4/4	*	*M4/4	*M4/4	*	*M4/4	*M4/4	*	*
*met(c)	*	*	*met(c)	*	*met(c)	*met(c)	*	*met(c)	*met(c)	*	*
=1	=1	=1	=1	=1	=1	=1	=1	=1	=1	=1	=1
*2\right	*	*	*2\right	*	*2\right	*2\right	*	*2\right	*2\right	*	*
!LO:TX:b:i:t=Vid Suum	!	!	!LO:TX:b:i:t=Vidit sum	!	!LO:TX:b:i:t=Vidit ſuum	!LO:TX:b:i:t=Vidit suum	!	!	!	!	!
!LO:TX:a:i:t=Tempo Gusto	!	!	!LO:TX:a:i:t=Tempo Gusto	!	!LO:TX:a:i:t=Tempo Gusto	!LO:TX:a:i:t=Tempo Gusto	!	!LO:TX:a:t=Vidit Suum Tacet	!	!	!
8F\L	.	.	8a-\L	.	4cc\	4cc\	.	1ryy	00r	.	.
8F\	.	.	8a-\	.	.	.	.	.	.	.	.
8F\	.	.	8a-\	.	16.ff\LL	16.ff\LL	.	.	.	.	.
.	.	.	.	.	32ee-\K	32ee-\K	.	.	.	.	.
8F\J	.	.	8a-\J	.	16.dd-X\	16.dd-X\	.	.	.	.	.
.	.	.	.	.	32cc\JJk	32cc\JJk	.	.	.	.	.
8F\L	6 4	.	8b-\L	.	8dd-X\	8dd-X\	.	.	.	.	.
8F\	5 3-	.	8a-\	.	4.cc\	4.cc\	.	.	.	.	.
8F\	.	.	8a-\	.	.	.	.	.	.	.	.
8F\J	.	.	8a-\J	.	.	.	.	.	.	.	.
=2	=2	=2	=2	=2	=2	=2	=2	=2	=2	=2	=2
8F\L	2	.	8g\L	.	4b-\	4b-\	.	1ryy	.	.	.
8F\	.	.	8g\	.	.	.	.	.	.	.	.
8En\	6	.	8g\	.	16.cc\LL	16.cc/LL	.	.	.	.	.
.	.	.	.	.	32b-\K	32b-/K	.	.	.	.	.
8E\J	.	.	8g\J	.	16.a-\	16.a-/	.	.	.	.	.
.	.	.	.	.	32g\JJk	32g/JJk	.	.	.	.	.
!LO:TX:a:t=P:problem: mixed beam	!	!	!	!	!LO:LB:g=original	!	!	!	!	!	!
8F\L	.	.	16c/LL	.	16a-/LL	16a-/LL	.	.	.	.	.
.	.	.	16B-/JJ	.	16g/JJ	16g/JJ	.	.	.	.	.
8FF/	.	.	4.A-/	.	4.f/	4.f/	.	.	.	.	.
8AA-/	6	.	.	.	.	.	.	.	.	.	.
8C/J	.	.	.	.	.	.	.	.	.	.	.
!LO:LB:g=original	!	!	!	!	!	!	!	!	!	!	!
=3	=3	=3	=3	=3	=3	=3	=3	=3	=3	=3	=3
2F\	6-	.	2a-\	.	16r	16r	.	1ryy	.	.	.
!	!	!	!	!	!	!	!LO:DY:b:t=p&colon;	!	!	!	!
.	.	.	.	.	16dd-X\LL	16dd-X\LL	p	.	.	.	.
.	.	.	.	.	16cc\	16cc\	.	.	.	.	.
.	.	.	.	.	16dd-\JJ	16dd-\JJ	.	.	.	.	.
.	.	.	.	.	16cc\LL	16cc\LL	.	.	.	.	.
.	.	.	.	.	16dd-\	16dd-X\	.	.	.	.	.
.	.	.	.	.	16cc\	16cc\	.	.	.	.	.
.	.	.	.	.	16dd-\JJ	16dd-\JJ	.	.	.	.	.
2En\	7	.	2g\	.	16gg\LL	16gg\LL	.	.	.	.	.
.	-	.	.	.	16dd-X\	16dd-X\	.	.	.	.	.
.	.	.	.	.	16cc\	16cc\	.	.	.	.	.
.	.	.	.	.	16bn\JJ	16bn\JJ	.	.	.	.	.
.	.	.	.	.	.	8qqb/	.	.	.	.	.
.	.	.	.	.	4cc\	[4cc\	.	.	.	.	.
=4	=4	=4	=4	=4	=4	=4	=4	=4	=4	=4	=4
2E-X\	6-	.	2g-X\	.	16cc\LL	16cc\LL]	.	1ryy	.	.	.
.	.	.	.	.	16cc\	16cc\	.	.	.	.	.
.	.	.	.	.	16bn\	16bn\	.	.	.	.	.
.	.	.	.	.	16cc\JJ	16cc\JJ	.	.	.	.	.
.	.	.	.	.	16bn\LL	16b\LL	.	.	.	.	.
.	.	.	.	.	16cc\	16cc\	.	.	.	.	.
.	.	.	.	.	16b\	16b\	.	.	.	.	.
.	.	.	.	.	16cc\JJ	16cc\JJ	.	.	.	.	.
2D\	6	.	2f\	.	16ff\LL	16ff\LL	.	.	.	.	.
.	.	.	.	.	16cc\	16cc\	.	.	.	.	.
!	!	!	!	!	!LO:SIC:s=16b-:v	!	!	!	!	!	!
.	.	.	.	.	16b\	16b-X\	.	.	.	.	.
.	.	.	.	.	16a-\JJ	16a-\JJ	.	.	.	.	.
!	!	!	!	!	!LO:SIC:s=4b-:v	!	!	!	!	!	!
.	.	.	.	.	4b\	4b-\	.	.	.	.	.
=5	=5	=5	=5	=5	=5	=5	=5	=5	=5	=5	=5
2D-X\	6	.	4f\	.	16b-\LL	16b-\LL	.	1ryy	00r	.	.
.	.	.	.	.	16dd-X\	16dd-X\	.	.	.	.	.
.	.	.	.	.	16cc\	16cc\	.	.	.	.	.
.	.	.	.	.	16b-\JJ	16b-\JJ	.	.	.	.	.
.	.	.	4Bn/	.	16g/LL	16g/LL	.	.	.	.	.
.	.	.	.	.	16f/	16f/	.	.	.	.	.
.	.	.	.	.	16en/	16en/	.	.	.	.	.
.	.	.	.	.	16f/JJ	16f/JJ	.	.	.	.	.
4C/	n	.	4.c\	.	16en/LL	16en/LL	.	.	.	.	.
.	.	.	.	.	16f/	16f/	.	.	.	.	.
.	.	.	.	.	16g/	16g/	.	.	.	.	.
.	.	.	.	.	16Bn/JJ	16Bn/JJ	.	.	.	.	.
4c\	.	.	.	.	4c/	4c/	.	.	.	.	.
.	.	.	8c\	.	.	.	.	.	.	.	.
=6	=6	=6	=6	=6	=6	=6	=6	=6	=6	=6	=6
4c\	2	.	4f\	.	8dd-X\	8dd-X\	.	1ryy	.	.	.
.	n	.	.	.	4dd-\	4dd-\	.	.	.	.	.
4B-\	4	.	4g\	.	.	.	.	.	.	.	.
.	n	.	.	.	8een\	8een\	.	.	.	.	.
4A-\	6	.	4c\	.	8ff\L	16ff\LL	.	.	.	.	.
.	.	.	.	.	.	(16ff\JJ	.	.	.	.	.
!	!	!	!	!	!	!LO:LB:g=original	!	!	!	!	!
.	.	.	.	.	8ff\J	(16ff\LL)	.	.	.	.	.
.	.	.	.	.	.	((32ee\L)	.	.	.	.	.
.	.	.	.	.	.	32dd-X\J	.	.	.	.	.
4B-\	-	.	4f\	.	16ff\LL	16cc\))	.	.	.	.	.
.	.	.	.	.	32ee\L	16b-\JJ	.	.	.	.	.
.	.	.	.	.	32dd-X\J	.	.	.	.	.	.
!	!	!	!	!	!	!LO:TX:a:t=P:problem: niepełna miara taktu-brak jednej ósemkowej wartości	!	!	!	!	!
.	.	.	.	.	16cc\	8ryy	.	.	.	.	.
.	.	.	.	.	16b-\JJ	.	.	.	.	.	.
=7	=7	=7	=7	=7	=7	=7	=7	=7	=7	=7	=7
4c\	4	.	4f\	.	8a-/	4.a-/	.	1ryy	.	.	.
.	n	.	.	.	4a-/	.	.	.	.	.	.
2C/	2	.	4en\	.	.	.	.	.	.	.	.
.	-	.	.	.	8g/	8g/	.	.	.	.	.
.	.	.	4f\	.	8dd-X\	8dd-X\	.	.	.	.	.
.	.	.	.	.	4dd-\	4dd-\	.	.	.	.	.
4BB-/	4 2	.	4g\	.	.	.	.	.	.	.	.
.	7	.	.	.	8een\	8een\	.	.	.	.	.
=8	=8	=8	=8	=8	=8	=8	=8	=8	=8	=8	=8
8AA-/L	6	.	8c/L	.	8ff\L	8ff\L	.	1ryy	.	.	.
8FF/	.	.	8c/	.	8ff\J	8ff\J	.	.	.	.	.
!	!	!	!	!	!LO:LB:g=original	!	!	!	!	!	!
8AA-/	.	.	8c/	.	16ff\LL	16ff\LL	.	.	.	.	.
.	.	.	.	.	32ee-\L	32ee-\L	.	.	.	.	.
.	.	.	.	.	32dd-X\J	(32dd-X\J	.	.	.	.	.
8BB-/J	-	.	8d/J	.	16cc\	16cc\)	.	.	.	.	.
.	.	.	.	.	16b-\JJ	16b-\JJ	.	.	.	.	.
8C/L	6 4	.	8c/L	.	4a-/	4a-/	.	.	.	.	.
8C/	.	.	8c/	.	.	.	.	.	.	.	.
8C/	.	.	8c/	.	16a-/LL	16a-/LL	.	.	.	.	.
.	.	.	.	.	16f/	16f/	.	.	.	.	.
8C/J	n	.	8c/J	.	16g/	16g/	.	.	.	.	.
.	.	.	.	.	16en/JJ	16en/JJ	.	.	.	.	.
=9	=9	=9	=9	=9	=9	=9	=9	=9	=9	=9	=9
4FF/	.	.	4A-/	.	8f/L	8f/L	.	1ryy	2r	.	.
.	.	.	.	.	8c/J	8c/J	.	.	.	.	.
4r	.	.	4r	.	4A-/	4A-/	.	.	.	.	.
!	!	!LO:DY:b	!	!LO:DY:b	!	!	!LO:DY:b:t=p&colon;	!	!	!	!
8F\L	.	p	8f\L	p	8a-/L	8cc\L	p	.	4cc\	Vi-	.
8F\	.	.	8f\	.	8a-/	8cc\	.	.	.	.	.
8F\	.	.	8f\	.	8a-/	8cc\	.	.	16.ff\LL	-dit	.
.	.	.	.	.	.	.	.	.	32ee-\K	.	.
8F\J	.	.	8f\J	.	8a-/J	8cc\J	.	.	16.dd-X\	.	.
.	.	.	.	.	.	.	.	.	32cc\JJk	.	.
=10	=10	=10	=10	=10	=10	=10	=10	=10	=10	=10	=10
8F\L	6 4	.	8f\L	.	8b-/L	8dd-X\L	.	1ryy	8dd-X\	ſu-	.
8F\	5 3-	.	8f\	.	8a-/	8cc\	.	.	4.cc\	-sum	.
8F\	.	.	8f\	.	8a-/	8cc\	.	.	.	.	.
8F\J	.	.	8f\J	.	8a-/J	8cc\J	.	.	.	.	.
8F\L	2	.	8f\L	.	8g/L	8b-\L	.	.	4b-\	.	.
8F\	.	.	8f\	.	8g/	8b-\	.	.	.	.	.
8En\	6 5	.	8en\	.	8a-/	8cc\	.	.	32cc\KLL	dul-	.
.	.	.	.	.	.	.	.	.	16.b-\	.	.
8E\J	.	.	8e\J	.	8a-/J	8b-\J	.	.	32a-\K	-cem	.
.	.	.	.	.	.	.	.	.	16.g\JJ	.	.
!	!	!	!LO:LB:g=original	!	!	!	!	!	!	!	!
=11	=11	=11	=11	=11	=11	=11	=11	=11	=11	=11	=11
*	*	*	*	*	*	*Xtuplet	*	*	*Xtuplet	*	*
!LO:TX:a:t=P:problem: mixed beam	!	!	!LO:TX:a:t=P:problem: mixed beam	!	!	!LO:TX:a:t=P:problem: brak oznczeń trioli	!	!	!LO:TX:a:t=P:problem: brak oznczeń trioli	!	!
8F\L	.	.	8f\L	.	8c/L	24a-X/LL	.	1ryy	24a-/LL	na-	.
.	.	.	.	.	.	24g/	.	.	24g/	.	.
.	.	.	.	.	.	24f/JJ	.	.	24f/JJ	.	.
!	!	!	!	!	!	!LO:TX:a:t=P:problem: niepełna miara taktu- brak pauzy ósemkowej w źródle	!	!	!	!	!
8FF/	.	.	8F/	.	16f/L	8ryy	.	.	8f/	-tum	.
.	.	.	.	.	16en/JJ	.	.	.	.	.	.
8AA-/	.	.	8A-/	.	8f/L	4r	.	.	4r	.	.
8C/J	.	.	8c/J	.	8g/J	.	.	.	.	.	.
!	!	!	!	!	!	!	!	!	!LO:LB:g=original	!	!
2F\	6	.	2f\	.	2a-/	[2dd-X\	.	.	4dd-X\	mo-	.
.	-	.	.	.	.	.	.	.	4dd-\	-ri-	.
=12	=12	=12	=12	=12	=12	=12	=12	=12	=12	=12	=12
!	!	!	!	!	!	!	!	!	!LO:SIC:s=8dd-:v	!	!
2En\	7	.	2en\	.	2g/	8dd-\L]	.	1ryy	12dd\L	-en-	.
.	6	.	.	.	.	.	.	.	12b-\	.	.
.	.	.	.	.	.	8bn\J	.	.	.	.	.
.	.	.	.	.	.	.	.	.	12b-\J	.	.
.	.	.	.	.	.	4cc\	.	.	4cc\	-tem	.
2E-X\	6-	.	2e-X\	.	2g-X/	[2cc\	.	.	4cc\	de-	.
.	.	.	.	.	.	.	.	.	4cc\	-so-	.
=13	=13	=13	=13	=13	=13	=13	=13	=13	=13	=13	=13
2D\	7	.	2dn\	.	1f	8cc\L]	.	1ryy	8cc\L	-la-	.
.	6	.	.	.	.	8an\J	.	.	8an\J	.	.
.	.	.	.	.	.	4b-\	.	.	4b-\	-tum	.
!LO:TX:a:t=P:problem: nieczytelny zapisa w źródle	!	!	!	!	!	!	!	!	!	!	!
2r	6-	.	2d-X\	.	.	[2b-\	.	.	4b-\	mo-	.
.	.	.	.	.	.	.	.	.	4b-\	-ri-	.
!LO:LB:g=original	!	!	!	!	!	!	!	!	!	!	!
=14	=14	=14	=14	=14	=14	=14	=14	=14	=14	=14	=14
2C/	7	.	2c\	.	2e-/	8b-/L]	.	1ryy	8b-\L	-en-	.
.	6	.	.	.	.	8g/J	.	.	8g\J	.	.
.	.	.	.	.	.	4an/	.	.	4an\	-tem	.
!LO:TX:a:t=P:problem: mixed beam	!	!	!	!	!	!	!	!	!	!	!
8BB-/L	-	.	8B-\L	.	4b-/	4dd-X\	.	.	4dd-X\	de-	.
8G\	6 5	.	8g\	.	.	.	.	.	.	.	.
8A-\	-	.	8a-\	.	4a-/	4cc\	.	.	4cc\	-so-	.
8Dn\J	7	.	8dn\J	.	.	.	.	.	.	.	.
=15	=15	=15	=15	=15	=15	=15	=15	=15	=15	=15	=15
4E-\	6 4	.	4e-\	.	8a-/L	8cc\L	.	1ryy	8cc\	-la-	.
.	3	.	.	.	8g/J	8b-\J	.	.	8b-\	-tum	.
4r	.	.	4r	.	4r	4r	.	.	4r	.	.
4E-\	6	.	4e-\	.	4r	4r	.	.	4dd-X\	dum	.
4r	7	.	4r	.	4b-/	4dd-X\	.	.	4r	.	.
=16	=16	=16	=16	=16	=16	=16	=16	=16	=16	=16	=16
!	!	!	!	!	!	!	!	!	!LO:SIC:s=4dd-:v	!	!
4G\	6 5-	.	4g\	.	4r	4r	.	1ryy	4dd\	e-	.
!	!	!	!	!	!	!LO:SIC:s=4dd-:v	!	!	!	!	!
4r	.	.	4r	.	4b-\	4dd\	.	.	4r	.	.
4A-\	.	.	4a-\	.	4r	4r	.	.	4cc\	-mi-	.
4r	.	.	4r	.	4b-\	4cc\	.	.	4r	.	.
=17	=17	=17	=17	=17	=17	=17	=17	=17	=17	=17	=17
4Dn\	7	.	4dn\	.	4r	4r	.	1ryy	2cc-X\	-sit	.
4r	.	.	4r	.	4a-/	4cc-X\	.	.	.	.	.
4E-\	.	.	4e-\	.	4r	4r	.	.	[2b-\	ſpi-	.
!	!	!	!	!	!	!LO:LB:g=original	!	!	!	!	!
4r	.	.	4r	.	4a-/	4b-\	.	.	.	.	.
=18	=18	=18	=18	=18	=18	=18	=18	=18	=18	=18	=18
4E-\	.	.	4e-\	.	4r	4r	.	1ryy	4.b-\]	.	.
4r	.	.	4r	.	4b-\	4b-\	.	.	.	.	.
.	.	.	.	.	.	.	.	.	8b-\	-ri-	.
!	!	!	!LO:TX:a:t=P:problem: mixed beam	!	!	!	!	!	!	!	!
8AA-/L	.	.	8A-/L	.	8a-/	8a-/	.	.	4a-\	-tum	.
8D-X/	.	.	8f\	.	4aa-\	4aa-\	.	.	.	.	.
8C/	.	.	8e-\	.	.	.	.	.	4r	.	.
8BB-/J	.	.	8g\J	.	8dd-X\	8dd-X\	.	.	.	.	.
!	!	!	!	!	!	!	!	!	!LO:LB:g=original	!	!
=19	=19	=19	=19	=19	=19	=19	=19	=19	=19	=19	=19
8AA-/L	.	.	8a-\L	.	8cc\	8cc\	.	1ryy	0r	.	.
8D-X/	.	.	8f\	.	4aa-\	4aa-\	.	.	.	.	.
8C/	.	.	8e-\	.	.	.	.	.	.	.	.
8BB-/J	.	.	8g\J	.	8dd-X\	8dd-X\	.	.	.	.	.
!	!	!	!	!	!LO:LB:g=original	!	!	!	!	!	!
8AA-/L	.	.	8a-\L	.	8cc\	8cc\	.	.	.	.	.
8D-X/	.	.	8f\	.	4aa-\	4aa-\	.	.	.	.	.
8C/	.	.	8e-\	.	.	.	.	.	.	.	.
8BB-/J	.	.	8g\J	.	8dd-X\	8dd-X\	.	.	.	.	.
=20	=20	=20	=20	=20	=20	=20	=20	=20	=20	=20	=20
8AA-/L	.	.	8a-\L	.	16cc\LL	16cc\LL	.	1ryy	.	.	.
.	.	.	.	.	16a-\	16a-\	.	.	.	.	.
8D-X/J	.	.	8f\	.	16dd-X\	16dd-X\	.	.	.	.	.
.	.	.	.	.	16b-\JJ	16b-\JJ	.	.	.	.	.
.	.	.	.	.	.	8qqa-/	.	.	.	.	.
8E-/L	.	.	8e-\	.	4g/	4g/	.	.	.	.	.
8E-/J	.	.	8B-\J	.	.	.	.	.	.	.	.
4AA-/	.	.	4c/	.	8a-/L	8a-/L	.	.	.	.	.
.	.	.	.	.	8e-/J	8e-/J	.	.	.	.	.
4r	.	.	4r	.	4A-/	4A-/	.	.	.	.	.
=21	=21	=21	=21	=21	=21	=21	=21	=21	=21	=21	=21
!	!	!	!	!	!	!	!LO:DY:b:t=p&colon;	!	!	!	!
8A-\L	.	.	8c\L	.	4cc\	4cc\	p	1ryy	4cc\	Vi-	.
8A-\	.	.	8c\	.	.	.	.	.	.	.	.
8G-X\	6	.	8c\	.	16.ee-\LL	16.ee-\LL	.	.	16ee-\LL	-dit	.
.	.	.	.	.	.	.	.	.	16dd-X\	.	.
.	.	.	.	.	32dd-X\K	32dd-X\K	.	.	.	.	.
8G-\J	.	.	8c\J	.	16.cc\	16.cc\	.	.	16cc\	.	.
.	.	.	.	.	.	.	.	.	16b-\JJ	.	.
.	.	.	.	.	32b-\JJk	32b-\JJk	.	.	.	.	.
8F\L	4	.	8c\L	.	8b-/	8b-\	.	.	8b-\	ſu-	.
8F\	n	.	8c\	.	4.an/	4.an/	.	.	4.an\	-um	.
8F\	7	.	8c\	.	.	.	.	.	.	.	.
8F\J	.	.	8c\J	.	.	.	.	.	.	.	.
=22	=22	=22	=22	=22	=22	=22	=22	=22	=22	=22	=22
8AAn/L	7	.	8c\L	.	8g-X/	8g-X/	.	1ryy	8g-X/	dul-	.
8AA/	.	.	8c\	.	4.f/	4.f/	.	.	4.f/	-cem	.
8AA/	.	.	8c\	.	.	.	.	.	.	.	.
8AA/J	.	.	8c\J	.	.	.	.	.	.	.	.
!	!	!	!LO:LB:g=original	!	!	!	!	!	!	!	!
8BB-/L	4	.	8c\L	.	16ee-\LL	16ee-\LL	.	.	16ee-\LL	na-	.
.	.	.	.	.	16cc\JJ	16cc\JJ	.	.	16cc\JJ	.	.
!	!	!	!	!	!LO:SIC:s=4.ddn:v	!	!	!	!LO:TX:a:t=P:problem: niepełna miara taktu- brak jednej ósemkowej wartości	!	!
8BB-/	3	.	8B-\	.	4.dd-X\	4.dd\	.	.	4dd\	-tum	.
8BB-/	.	.	8B-\	.	.	.	.	.	.	.	.
8BB-/J	.	.	8B-\J	.	.	.	.	.	8ryy	.	.
!LO:LB:g=original	!	!	!	!	!	!	!	!	!	!	!
=23	=23	=23	=23	=23	=23	=23	=23	=23	=23	=23	=23
8BB-/L	.	.	8d-X\L	.	4b-\	4b-\	.	1ryy	4b-\	mo-	.
8BB-/	.	.	8d-\	.	.	.	.	.	.	.	.
8AA-X/	6	.	8c\	.	16.ff\LL	16.ff\LL	.	.	16.ff\LL	.	.
.	.	.	.	.	32ee-\K	32ee-\K	.	.	32ee-\JJk	.	.
8AA-/J	.	.	8c\J	.	16.dd\	16.ddn\	.	.	32ddn\KLL	-ri-	.
.	.	.	.	.	.	.	.	.	16.cc\JJ	.	.
.	.	.	.	.	32cc\JJk	32cc\JJk	.	.	.	.	.
8GG/L	4	.	8dn\L	.	8b-\	8cc\	.	.	8b-\	-en-	.
8GG/	n	.	8d\	.	4.bn\	4.bn\	.	.	4.bn\	-tem	.
8GG/	.	.	8d\	.	.	.	.	.	.	.	.
8GG/J	.	.	8d\J	.	.	.	.	.	.	.	.
=24	=24	=24	=24	=24	=24	=24	=24	=24	=24	=24	=24
8BBn/L	7	.	8d\L	.	8a-X/	8a-X/	.	1ryy	8a-\	de-	.
8BB/	6	.	8d\	.	4.g/	4.g/	.	.	4.g\	-so-	.
8BB/	.	.	8d\	.	.	.	.	.	.	.	.
8BB/J	.	.	8d\J	.	.	.	.	.	.	.	.
8C/L	.	.	8c\L	.	16ff\LL	16ff\LL	.	.	16ff\LL	-la-	.
.	.	.	.	.	16dd\JJ	16dd\JJ	.	.	16dd\JJ	.	.
8C/	.	.	8c\	.	4.ee-\	4.ee-\	.	.	4.ee-\	-tum	.
8C/	.	.	8c\	.	.	.	.	.	.	.	.
8C/J	.	.	8c\J	.	.	.	.	.	.	.	.
=25	=25	=25	=25	=25	=25	=25	=25	=25	=25	=25	=25
8C/L	n	.	8c\L	.	8en/L	8gg\L	.	1ryy	4gg\	de-	.
8C/	.	.	8c\	.	8e/	8gg\	.	.	.	.	.
8C/	.	.	8c\	.	8e/	8b-\	.	.	4b-\	-so-	.
8C/J	.	.	8c\J	.	8e/J	8b-\J	.	.	.	.	.
8C/L	6 4	.	8c\L	.	8f/L	8a-/L	.	.	2a-X\	-la-	.
8C/	.	.	8c\	.	8f/	8a-/	.	.	.	.	.
8BBn/	7	.	8Bn\	.	8f/	8a-/	.	.	.	.	.
8BB/J	.	.	8B\J	.	8f/J	8a-/J	.	.	.	.	.
=26	=26	=26	=26	=26	=26	=26	=26	=26	=26	=26	=26
4C/	n	.	4c\	.	4.en/	4g/	.	1ryy	4g\	-tum	.
4c\	.	.	4cc\	.	.	4r	.	.	4r	.	.
.	.	.	.	.	8c/	.	.	.	.	.	.
4c\	2	.	4cc\	.	4f/	8dd-X\	.	.	4.dd-X\	dum	.
.	.	.	.	.	.	4dd-\	.	.	.	.	.
!LO:TX:a:t=P:problem:przepełniona miara taktu	!	!	!	!	!	!	!	!	!	!	!
!LO:N:vis=4	!	!	!	!	!	!	!	!	!	!	!
8B-\	4	.	4b-\	.	4g/	.	.	.	.	.	.
!LO:N:vis=2	!	!	!	!	!	!	!	!	!	!	!
8G\	n	.	.	.	.	8een\	.	.	8een\	e-	.
!	!	!	!	!	!	!	!	!	!LO:LB:g=original	!	!
=27	=27	=27	=27	=27	=27	=27	=27	=27	=27	=27	=27
4A-\	6	.	4a-\	.	4a-/	8ff\L	.	1ryy	4.ff\	-mi-	.
.	.	.	.	.	.	8ff\J	.	.	.	.	.
!	!	!	!	!	!	!LO:LB:g=original	!	!	!	!	!
4B-\	-	.	4b-\	.	2a-/	((16ff\LL	.	.	.	.	.
.	.	.	.	.	.	32ee-\L	.	.	.	.	.
.	.	.	.	.	.	32dd\J	.	.	.	.	.
.	.	.	.	.	.	16cc\	.	.	8b-\	-ſit	.
.	.	.	.	.	.	16b-\JJ))	.	.	.	.	.
4c\	6 4	.	4cc\	.	.	4.a-/	.	.	4.a-\	ſpi-	.
4C/	n	.	4c/	.	4en/	.	.	.	.	.	.
.	.	.	.	.	.	8g/	.	.	8g\	-ri-	.
=28	=28	=28	=28	=28	=28	=28	=28	=28	=28	=28	=28
4F\	.	.	4f\	.	4f/	4f/	.	1ryy	4f/	-tum	.
4r	.	.	4r	.	4r	4gg-X\	.	.	4gg-X\	Vi-	.
2AAn/	7	.	2An/	.	2ff\	4gg-\	.	.	4gg-\	.	.
.	.	.	.	.	.	16.ff\LL	.	.	32ff\KLL	-dit	.
.	.	.	.	.	.	.	.	.	16.ee-\	.	.
.	.	.	.	.	.	32ee-\K	.	.	.	.	.
.	.	.	.	.	.	16.dd-X\	.	.	16.dd-X\	.	.
.	.	.	.	.	.	32cc\JJk	.	.	32cc\JJk	.	.
!	!	!	!	!	!LO:LB:g=original	!	!	!	!	!	!
=29	=29	=29	=29	=29	=29	=29	=29	=29	=29	=29	=29
!	!	!	!	!	!LO:TX:a:t=P:problem: brak jednego taktu w źródle	!	!	!	!	!	!
4BB-/	-	.	4B-/	.	1ryy	4b-\	.	1ryy	16dd-X\LL	ſu-	.
.	.	.	.	.	.	.	.	.	16cc\JJ	.	.
.	.	.	.	.	.	.	.	.	8b-\	-um	.
4r	.	.	4r	.	.	4aa-X\	.	.	4aa-X\	dul-	.
8BBn/L	7	.	8Bn/L	.	.	4aa-\	.	.	4aa-\	.	.
8BB/	.	.	8B/	.	.	.	.	.	.	.	.
!	!	!	!	!	!	!	!	!	!LO:SIC:s=32gg	!	!
8BB/	.	.	8B/	.	.	16.gg\LL	.	.	32gg-y\KLL	-cem	.
.	.	.	.	.	.	.	.	.	16.ff\	.	.
.	.	.	.	.	.	32ff\K	.	.	.	.	.
8BB/J	.	.	8B/J	.	.	16.een\	.	.	32een\K	.	.
.	.	.	.	.	.	.	.	.	16.dd-\JJ	.	.
.	.	.	.	.	.	32dd\JJk	.	.	.	.	.
=30	=30	=30	=30	=30	=30	=30	=30	=30	=30	=30	=30
4C/	.	.	4c/	.	4een\	8cc\L	.	1ryy	24een\LL	na-	.
.	.	.	.	.	.	.	.	.	24dd\	.	.
.	.	.	.	.	.	.	.	.	24cc\JJ	.	.
.	.	.	.	.	.	16bn\L	.	.	8cc\	-tum	.
.	.	.	.	.	.	16cc\JJ	.	.	.	.	.
4r	.	.	4r	.	4c/	4c/	.	.	4r	.	.
2F\	6	.	2f\	.	2g/	[2dd-X\	.	.	4dd-X\	mo-	.
.	-	.	.	.	.	.	.	.	4dd-\	-ri-	.
=31	=31	=31	=31	=31	=31	=31	=31	=31	=31	=31	=31
2En\	7-	.	2en\	.	2g/	8dd-\L]	.	1ryy	8dd-X\L	-en-	.
.	6	.	.	.	.	8bn\J	.	.	8bn\J	.	.
.	.	.	.	.	.	4cc\	.	.	4cc\	-tum	.
2E-X\	6	.	2e-X\	.	2g-X/	[2cc\	.	.	4cc\	e-	.
.	.	.	.	.	.	.	.	.	4cc\	-vo-	.
=32	=32	=32	=32	=32	=32	=32	=32	=32	=32	=32	=32
2Dn\	7	.	2dn\	.	2f/	8cc\L]	.	1ryy	8cc\L	-la-	.
.	6	.	.	.	.	8an\J	.	.	8an\J	.	.
!	!	!	!	!	!	!	!	!	!LO:LB:g=original	!	!
.	.	.	.	.	.	4b-\	.	.	4b-\	-tum	.
2D-X\	6	.	2d-X\	.	2f/	2b-\	.	.	4b-\	de-	.
.	.	.	.	.	.	.	.	.	4b-\	-so-	.
=33	=33	=33	=33	=33	=33	=33	=33	=33	=33	=33	=33
!	!	!	!	!	!	!	!	!	!	!	!LO:DY:a
8C/L	6	.	8c/L	.	8f/L	8a-/L	.	1ryy	2a-\	-la-	p
8C/	.	.	8c/	.	8f/	8a-/	.	.	.	.	.
8BBn/	7	.	8Bn/	.	8f/	8a-/	.	.	.	.	.
8BB/J	.	.	8B/J	.	8f/J	8a-/J	.	.	.	.	.
!	!	!	!	!	!	!LO:TX:a:t=P:problem:mixed beam	!	!	!	!	!
!	!	!	!LO:LB:g=original	!	!LO:TX:a:t=P:problem: mixed beam	!	!	!	!	!	!
4C/	n	.	4c/	.	8en/L	8g/L	.	.	4g\	-tum	.
.	.	.	.	.	8cc\	8een\	.	.	.	.	.
4r	.	.	4r	.	8een\	8gg\	.	.	4r	.	.
.	.	.	.	.	.	.	.	.	.	.	.
.	.	.	.	.	8gg\J	8bb-\J	.	.	.	.	.
.	.	.	.	.	.	.	.	.	.	.	.
!LO:LB:g=original	!	!	!	!	!	!	!	!	!	!	!
=34	=34	=34	=34	=34	=34	=34	=34	=34	=34	=34	=34
4C/	7	.	4c\	.	4r	4r	.	1ryy	4b-\	dum	.
4r	.	.	4r	.	4g/	4b-/	.	.	4r	.	.
4En\	.	.	4en\	.	4r	4r	.	.	4b-\	e-	.
4r	.	.	4r	.	4g/	4b-/	.	.	4r	.	.
=35	=35	=35	=35	=35	=35	=35	=35	=35	=35	=35	=35
4F\	.	.	4f\	.	4r	4r	.	1ryy	4b-\	-mi-	.
4r	.	.	4r	.	4f/	4a-/	.	.	4a-\	-ſit	.
4AA-/	7	.	4A-/	.	4r	4r	.	.	2r	.	.
4r	.	.	4r	.	4f/	4a-/	.	.	.	.	.
=36	=36	=36	=36	=36	=36	=36	=36	=36	=36	=36	=36
4BB-/	6	.	4B-/	.	4r	4r	.	1ryy	2g\	dum	.
4r	.	.	4r	.	4f/	4g/	.	.	.	.	.
4BBn/	6 5	.	4Bn/	.	4r	4r	.	.	2g\	e-	.
4r	.	.	4r	.	4f/	4g/	.	.	.	.	.
=37	=37	=37	=37	=37	=37	=37	=37	=37	=37	=37	=37
4C/	n	.	4c\	.	4r	4r	.	1ryy	2g\	-mi-	.
4r	.	.	4r	.	4en/	4g/	.	.	.	.	.
4C/	6 4	.	4c\	.	4r	4r	.	.	2a-\	-ſit	.
4r	.	.	4r	.	4f/	4a-/	.	.	.	.	.
=38	=38	=38	=38	=38	=38	=38	=38	=38	=38	=38	=38
4C/	6 4	.	4c\	.	4r	4r	.	1ryy	2.g\	ſpi-	.
4r	.	.	4r	.	4f/	4g/	.	.	.	.	.
4C/	n	.	4c\	.	4r	4r	.	.	.	.	.
4r	.	.	4r	.	4en/	4g/	.	.	4g\	-ri-	.
!	!	!	!	!	!	!LO:LB:g=original	!	!	!	!	!
=39	=39	=39	=39	=39	=39	=39	=39	=39	=39	=39	=39
4FF/	.	.	4f\	.	4f/	4f/	.	1ryy	2f/	-tum	.
4r	.	.	4r	.	4ff\	4aa-\	.	.	.	.	.
4AA-/	6	.	4A-/	.	4r	4r	.	.	2r	.	.
4r	.	.	4r	.	4f/	4a-/	.	.	.	.	.
=40	=40	=40	=40	=40	=40	=40	=40	=40	=40	=40	=40
4BB-/	4 2	.	4B-/	.	4en/	4g/	.	1ryy	00r	.	.
4r	.	.	4r	.	4een\	4gg\	.	.	.	.	.
4BBn/	7	.	4Bn/	.	4r	4r	.	.	.	.	.
4r	.	.	4r	.	4f/	4a-/	.	.	.	.	.
=41	=41	=41	=41	=41	=41	=41	=41	=41	=41	=41	=41
4C/	n	.	4B-/	.	4en/	4g/	.	1ryy	.	.	.
4C/	.	.	4B-/	.	4een\	4gg\	.	.	.	.	.
4C/	6 4	.	4B-/	.	4ff\	4aa-\	.	.	.	.	.
4BBn/	7	.	4An/	.	4f/	4a-/	.	.	.	.	.
=42	=42	=42	=42	=42	=42	=42	=42	=42	=42	=42	=42
4C/	4	.	4B-/	.	4f/	4g/	.	1ryy	.	.	.
4C/	.	.	4B-/	.	4f/	4g/	.	.	.	.	.
4C/	n	.	4B-/	.	4en/	4g/	.	.	.	.	.
4C/	.	.	4B-/	.	4e/	4g/	.	.	.	.	.
=43	=43	=43	=43	=43	=43	=43	=43	=43	=43	=43	=43
2FF/	.	.	2E-/	.	2f/	2f/	.	1ryy	.	.	.
.	.	.	.	.	.	.	.	.	.	.	.
2r	.	.	2r	.	2r	2r	.	.	.	.	.
=||	=||	=||	=||	=||	=||	=||	=||	=||	=||	=||	=||
*-	*-	*-	*-	*-	*-	*-	*-	*-	*-	*-	*-
!!!system-decoration: [(g1)][(g2)][(g3)]
!!!ENC:Anna Matuszewska
!!!END:2020-11-29
!!!ENC:Anastazja Marusiak
!!!END:2020-06-09
